static/img/in-field/switch-tick-dark.svg

<svg fill="none" height="57" viewBox="0 0 78 57" width="78" xmlns="http://www.w3.org/2000/svg"><rect fill="#019aeb" height="32" rx="16" transform="matrix(1 0 0 -1 7 44.3332)" width="64"/><path d="m68 28.3332c0 7.1797-5.8203 13-13 13s-13-5.8203-13-13 5.8203-13 13-13 13 5.8203 13 13z" fill="#fff"/><path d="m52.6667 34.5415-1.375-1.375-1.3334-1.3333-1.375-1.375-1.3333-1.3333.5417-.5834.5833-.5833.5833-.5417.5834-.5833.75.7917.7916.75.7917.7916.7917.7917 1.9583-1.9583 1.9583-1.9584 1.9584-1.9583 1.9166-1.9583.5834.5833.5833.5833.5833.5417.5417.5833-2.5 2.5417-2.5417 2.5417-2.5416 2.5z" fill="#019aeb"/></svg>

<svg width="78" height="57" viewBox="0 0 78 57" fill="none" xmlns="http://www.w3.org/2000/svg">
<rect width="64" height="32" rx="16" transform="matrix(1 0 0 -1 7 44.3332)" fill="#019AEB"/>
<path d="M68 28.3332C68 35.5129 62.1797 41.3332 55 41.3332C47.8203 41.3332 42 35.5129 42 28.3332C42 21.1535 47.8203 15.3332 55 15.3332C62.1797 15.3332 68 21.1535 68 28.3332Z" fill="#fff"/>
<path d="M52.6667 34.5415L51.2917 33.1665L49.9583 31.8332L48.5833 30.4582L47.25 29.1249L47.7917 28.5415L48.375 27.9582L48.9583 27.4165L49.5417 26.8332L50.2917 27.6249L51.0833 28.3749L51.875 29.1665L52.6667 29.9582L54.625 27.9999L56.5833 26.0415L58.5417 24.0832L60.4583 22.1249L61.0417 22.7082L61.625 23.2915L62.2083 23.8332L62.75 24.4165L60.25 26.9582L57.7083 29.4999L55.1667 31.9999L52.6667 34.5415Z" fill="#019AEB"/>
</svg>
